apps/www/public/images/logos/frameworks/nextjs.svg

<svg width="61" height="62" viewBox="0 0 61 62" fill="none" xmlns="http://www.w3.org/2000/svg">
<path fill-rule="evenodd" clip-rule="evenodd" d="M42.3148 48.6796C38.9009 50.9525 34.8014 52.2771 30.3924 52.2771C18.4957 52.2771 8.85156 42.6329 8.85156 30.7362C8.85156 18.8395 18.4957 9.19531 30.3924 9.19531C42.2891 9.19531 51.9333 18.8395 51.9333 30.7362C51.9333 37.1564 49.1245 42.9207 44.6688 46.8671L39.5552 40.2803V21.8278H36.584V36.4531L25.2299 21.8278H21.4808V39.6473H24.4801V25.6368L42.3148 48.6796Z" fill="#7E7E7E"/>
</svg>

<svg xmlns="http://www.w3.org/2000/svg" width="61" height="62" fill="none" viewBox="0 0 61 62"><path fill="#7e7e7e" fill-rule="evenodd" d="M42.315 48.68a21.44 21.44 0 0 1-11.923 3.597c-11.896 0-21.54-9.644-21.54-21.54 0-11.897 9.644-21.542 21.54-21.542 11.897 0 21.541 9.645 21.541 21.541 0 6.42-2.809 12.185-7.264 16.131l-5.114-6.587V21.828h-2.971v14.625L25.23 21.828h-3.75v17.82h3V25.636z" clip-rule="evenodd"/></svg>
